SVG_Azure_Grouped/Application/Fluid Relay.svg

<?xml version="1.0" encoding="UTF-8" standalone="no"?>
<!-- Generated by Microsoft Visio, SVG Export Fluid Relay.svg Page-1 -->

<svg
   xmlns:dc="http://purl.org/dc/elements/1.1/"
   xmlns:cc="http://creativecommons.org/ns#"
   xmlns:rdf="http://www.w3.org/1999/02/22-rdf-syntax-ns#"
   xmlns:svg="http://www.w3.org/2000/svg"
   xmlns="http://www.w3.org/2000/svg"
   xmlns:xlink="http://www.w3.org/1999/xlink"
   xmlns:sodipodi="http://sodipodi.sourceforge.net/DTD/sodipodi-0.dtd"
   xmlns:inkscape="http://www.inkscape.org/namespaces/inkscape"
   width="0.78739709in"
   height="0.78738725in"
   viewBox="0 0 56.692498 56.692193"
   xml:space="preserve"
   class="st5"
   version="1.1"
   id="svg62"
   sodipodi:docname="Fluid Relay.svg"
   style="font-size:12px;overflow:visible;color-interpolation-filters:sRGB;fill:none;fill-rule:evenodd;stroke-linecap:square;stroke-miterlimit:3"
   inkscape:version="0.92.5 (2060ec1f9f, 2020-04-08)"><metadata
   id="metadata66"><rdf:RDF><cc:Work
       rdf:about=""><dc:format>image/svg+xml</dc:format><dc:type
         rdf:resource="http://purl.org/dc/dcmitype/StillImage" /></cc:Work></rdf:RDF></metadata><sodipodi:namedview
   pagecolor="#ffffff"
   bordercolor="#666666"
   borderopacity="1"
   objecttolerance="10"
   gridtolerance="10"
   guidetolerance="10"
   inkscape:pageopacity="0"
   inkscape:pageshadow="2"
   inkscape:window-width="640"
   inkscape:window-height="480"
   id="namedview64"
   showgrid="false"
   inkscape:zoom="1.4193119"
   inkscape:cx="37.795128"
   inkscape:cy="37.784045"
   inkscape:window-x="0"
   inkscape:window-y="0"
   inkscape:window-maximized="0"
   inkscape:current-layer="svg62" />
	<style
   type="text/css"
   id="style2">
	<![CDATA[
		.st1 {fill:#773adc;stroke:none;stroke-linecap:butt;stroke-width:34}
		.st2 {fill:url(#grad0-8);stroke:none;stroke-linecap:butt;stroke-width:34}
		.st3 {fill:url(#grad0-18);stroke:none;stroke-linecap:butt;stroke-width:34}
		.st4 {fill:url(#grad0-22);stroke:none;stroke-linecap:butt;stroke-width:34}
		.st5 {fill:none;fill-rule:evenodd;font-size:12px;overflow:visible;stroke-linecap:square;stroke-miterlimit:3}
	]]>
	</style>

	<defs
   id="Patterns_And_Gradients">
		<linearGradient
   id="grad0-8"
   x1="0"
   y1="0"
   x2="1"
   y2="0"
   gradientTransform="rotate(-90,0.5,0.5)">
			<stop
   offset="0"
   stop-color="#a67af4"
   stop-opacity="1"
   id="stop4" />
			<stop
   offset="0.775"
   stop-color="#b796f9"
   stop-opacity="1"
   id="stop6" />
		</linearGradient>
		<linearGradient
   id="grad0-18"
   x1="0"
   y1="93.93704"
   x2="30.695293"
   y2="93.93704"
   gradientTransform="scale(0.99938446,1.0006159)"
   gradientUnits="userSpaceOnUse">
			<stop
   offset="0"
   stop-color="#a67af4"
   stop-opacity="1"
   id="stop9" />
			<stop
   offset="0.485"
   stop-color="#ae87f6"
   stop-opacity="1"
   id="stop11" />
			<stop
   offset="0.9"
   stop-color="#b796f9"
   stop-opacity="1"
   id="stop13" />
		</linearGradient>
		<linearGradient
   id="grad0-22"
   x1="0"
   y1="103.56786"
   x2="21.063396"
   y2="103.56786"
   gradientTransform="scale(0.99938298,1.0006174)"
   gradientUnits="userSpaceOnUse">
			<stop
   offset="0"
   stop-color="#e6e6e6"
   stop-opacity="1"
   id="stop16" />
			<stop
   offset="0.9"
   stop-color="#f2f2f2"
   stop-opacity="1"
   id="stop18" />
		</linearGradient>
	<linearGradient
   inkscape:collect="always"
   xlink:href="#grad0-8"
   id="linearGradient4576"
   gradientTransform="scale(0.99938283,1.0006175)"
   x1="0"
   y1="111.44679"
   x2="13.184637"
   y2="111.44679"
   gradientUnits="userSpaceOnUse" /><linearGradient
   inkscape:collect="always"
   xlink:href="#grad0-8"
   id="linearGradient4578"
   gradientTransform="scale(0.99938283,1.0006175)"
   x1="0"
   y1="111.44679"
   x2="13.184637"
   y2="111.44679"
   gradientUnits="userSpaceOnUse" /><linearGradient
   inkscape:collect="always"
   xlink:href="#grad0-8"
   id="linearGradient4580"
   gradientTransform="scale(0.99938283,1.0006175)"
   x1="0"
   y1="111.44679"
   x2="13.184637"
   y2="111.44679"
   gradientUnits="userSpaceOnUse" /></defs>
	<g
   id="g60"
   transform="translate(-34.000441,-34.000498)">
		<title
   id="title22">Page-1</title>
		<g
   id="group13984-1"
   transform="translate(34,-34.0157)">
			<title
   id="title24">Fluid Relay.13984</title>
			<g
   id="group13985-2">
				<title
   id="title26">MsPortalFx.base.images-13</title>
				<g
   id="shape13986-3"
   transform="translate(12.9167,-9.57443)">
					<title
   id="title28">Sheet.13986</title>
					<path
   d="m 0,104.41 h 4.85 v 20.3 H 0 Z m 13.73,-2.43 v -4.85 h 20.28 v 4.85 z m -6.26,4.09 3.42,-3.43 14.34,14.36 -3.42,3.43 z"
   class="st1"
   id="path30"
   inkscape:connector-curvature="0"
   style="fill:#773adc;stroke:none;stroke-width:34;stroke-linecap:butt" />
				</g>
				<g
   id="shape13987-5"
   transform="translate(9.22288)">
					<title
   id="title33">Sheet.13987</title>
					<ellipse
   cx="6.5882502"
   cy="118.112"
   rx="6.5882502"
   ry="6.5963898"
   class="st2"
   id="ellipse35"
   style="fill:url(#linearGradient4576);stroke:none;stroke-width:34;stroke-linecap:butt" />
				</g>
				<g
   id="shape13988-9"
   transform="translate(43.5164,-28.1364)">
					<title
   id="title38">Sheet.13988</title>
					<ellipse
   cx="6.5882502"
   cy="118.112"
   rx="6.5882502"
   ry="6.5963898"
   class="st2"
   id="ellipse40"
   style="fill:url(#linearGradient4578);stroke:none;stroke-width:34;stroke-linecap:butt" />
				</g>
				<g
   id="shape13989-12"
   transform="translate(32.6148,-6.53302)">
					<title
   id="title43">Sheet.13989</title>
					<ellipse
   cx="6.5882502"
   cy="118.112"
   rx="6.5882502"
   ry="6.5963898"
   class="st2"
   id="ellipse45"
   style="fill:url(#linearGradient4580);stroke:none;stroke-width:34;stroke-linecap:butt" />
				</g>
				<g
   id="shape13990-15"
   transform="translate(0,-25.9787)">
					<title
   id="title48">Sheet.13990</title>
					<ellipse
   cx="15.3382"
   cy="109.352"
   rx="15.3382"
   ry="15.3571"
   class="st3"
   id="ellipse50"
   style="fill:url(#grad0-18);stroke:none;stroke-width:34;stroke-linecap:butt" />
				</g>
				<g
   id="shape13991-19"
   transform="translate(4.81295,-30.7976)">
					<title
   id="title53">Sheet.13991</title>
					<ellipse
   cx="10.5252"
   cy="114.17"
   rx="10.5252"
   ry="10.5382"
   class="st4"
   id="ellipse55"
   style="fill:url(#grad0-22);stroke:none;stroke-width:34;stroke-linecap:butt" />
				</g>
			</g>
		</g>
	</g>
</svg>

<?xml version="1.0" encoding="UTF-8" standalone="no"?>
<!DOCTYPE svg PUBLIC "-//W3C//DTD SVG 1.1//EN" "http://www.w3.org/Graphics/SVG/1.1/DTD/svg11.dtd">
<!-- Generated by Microsoft Visio, SVG Export Fluid Relay.svg Page-1 -->
<svg xmlns="http://www.w3.org/2000/svg" xmlns:xlink="http://www.w3.org/1999/xlink" xmlns:ev="http://www.w3.org/2001/xml-events"
		width="1.73185in" height="1.73206in" viewBox="0 0 124.693 124.709" xml:space="preserve" color-interpolation-filters="sRGB"
		class="st5">
	<style type="text/css">
	<![CDATA[
		.st1 {fill:#773adc;stroke:none;stroke-linecap:butt;stroke-width:34}
		.st2 {fill:url(#grad0-8);stroke:none;stroke-linecap:butt;stroke-width:34}
		.st3 {fill:url(#grad0-18);stroke:none;stroke-linecap:butt;stroke-width:34}
		.st4 {fill:url(#grad0-22);stroke:none;stroke-linecap:butt;stroke-width:34}
		.st5 {fill:none;fill-rule:evenodd;font-size:12px;overflow:visible;stroke-linecap:square;stroke-miterlimit:3}
	]]>
	</style>

	<defs id="Patterns_And_Gradients">
		<linearGradient id="grad0-8" x1="0" y1="0" x2="1" y2="0" gradientTransform="rotate(-90 0.5 0.5)">
			<stop offset="0" stop-color="#a67af4" stop-opacity="1"/>
			<stop offset="0.775" stop-color="#b796f9" stop-opacity="1"/>
		</linearGradient>
		<linearGradient id="grad0-18" x1="0" y1="0" x2="1" y2="0" gradientTransform="rotate(-90 0.5 0.5)">
			<stop offset="0" stop-color="#a67af4" stop-opacity="1"/>
			<stop offset="0.485" stop-color="#ae87f6" stop-opacity="1"/>
			<stop offset="0.9" stop-color="#b796f9" stop-opacity="1"/>
		</linearGradient>
		<linearGradient id="grad0-22" x1="0" y1="0" x2="1" y2="0" gradientTransform="rotate(-90 0.5 0.5)">
			<stop offset="0" stop-color="#e6e6e6" stop-opacity="1"/>
			<stop offset="0.9" stop-color="#f2f2f2" stop-opacity="1"/>
		</linearGradient>
	</defs>
	<g>
		<title>Page-1</title>
		<g id="group13637-1" transform="translate(34,-34.0157)">
			<title>Fluid Relay.13637</title>
			<g id="group13638-2">
				<title>MsPortalFx.base.images-13</title>
				<g id="shape13639-3" transform="translate(12.9167,-9.57443)">
					<title>Sheet.13639</title>
					<path d="M0 104.41 L4.85 104.41 L4.85 124.71 L0 124.71 L0 104.41 ZM13.73 101.98 L13.73 97.13 L34.01 97.13 L34.01
								 101.98 L13.73 101.98 ZM7.47 106.07 L10.89 102.64 L25.23 117 L21.81 120.43 L7.47 106.07 Z"
							class="st1"/>
				</g>
				<g id="shape13640-5" transform="translate(9.22288,0)">
					<title>Sheet.13640</title>
					<ellipse cx="6.58825" cy="118.112" rx="6.58825" ry="6.59639" class="st2"/>
				</g>
				<g id="shape13641-9" transform="translate(43.5164,-28.1364)">
					<title>Sheet.13641</title>
					<ellipse cx="6.58825" cy="118.112" rx="6.58825" ry="6.59639" class="st2"/>
				</g>
				<g id="shape13642-12" transform="translate(32.6148,-6.53302)">
					<title>Sheet.13642</title>
					<ellipse cx="6.58825" cy="118.112" rx="6.58825" ry="6.59639" class="st2"/>
				</g>
				<g id="shape13643-15" transform="translate(0,-25.9787)">
					<title>Sheet.13643</title>
					<ellipse cx="15.3382" cy="109.352" rx="15.3382" ry="15.3571" class="st3"/>
				</g>
				<g id="shape13644-19" transform="translate(4.81295,-30.7976)">
					<title>Sheet.13644</title>
					<ellipse cx="10.5252" cy="114.17" rx="10.5252" ry="10.5382" class="st4"/>
				</g>
			</g>
		</g>
	</g>
</svg>
